X: 12729
T: Father Kelly's
R: reel
M: 4/4
K: Gmajor
~B2 GB AGEG|DGGF G2 AB|cBAB cBAG|EGAG FDGA|
~B2 GB AGEG|DGGF G2 Bc|~d2 Bd gdBd|cAFA G2:|
~d2 Bd gdBd|~d2 Bd gdBd|~e2 ce agfe|defg agfe|
~d2 Bd gdBd|~d2 Bd gdBd|~c2 Ac ~B2 GB|AGEF G2:|

